!!!COM: Bach, Johann Sebastian
!!!CDT: 1685/3//-1750/7/28/
!!!OTL@@DE: Nun lob', mein' Seel', den Herren
!!!AGN: 4-Part Chorale
!!!SCT: BH 268
!!!SCT: BWV 389
**harm	**root	**kern	**kern	**kern	**kern
!	!	!bass	!tenor	!alto	!soprno
*	*Iorgan	*Iorgan	*Iorgan	*Iorgan	*Iorgan
*M4/4	*M4/4	*M4/4	*M4/4	*M4/4	*M4/4
*met(c)	*met(c)	*met(c)	*met(c)	*met(c)	*met(c)
*MM60	*MM60	*MM60	*MM60	*MM60	*MM60
*k[f#c#g#d#]	*k[f#c#g#d#]	*k[f#c#g#d#]	*k[f#c#g#d#]	*k[f#c#g#d#]	*k[f#c#g#d#]
*E:	*E:	*E:	*E:	*E:	*E:
*>[A,A,B]	*>[A,A,B]	*>[A,A,B]	*>[A,A,B]	*>[A,A,B]	*>[A,A,B]
*>A	*>A	*>A	*>A	*>A	*>A
I	4CC	8e	4g#	4b	4ee
.	.	8d#	.	.	.
=1	=1	=1	=1	=1	=1
vi	4AA	4c#	4g#	4cc#	4ee
iii	4EE	4G#	8g#	4b	4dd#
.	.	.	8f#	.	.
IV	4FF	4A	4e	8b	4cc#
.	.	.	.	8a	.
I	4CC	8E	4e	8g#	4b
.	.	8F#	.	8a	.
=2	=2	=2	=2	=2	=2
Ib	4CC	4G#	4.e	4b	4ee
ii7b	8DD	8A	.	8cc#	4ff#
V	8GG	8B	8d#	8b	.
I;	4CC;	4E;	4e;	4b;	4gg#;
I	4CC	4E	8e	4b	4gg#
.	.	.	8f#	.	.
=3	=3	=3	=3	=3	=3
I	8CC	4e	8g#	8b	8gg#
ii7d	8DD	.	8a	8cc#	8ff#
Vb/vi	4EE	4B#	8g#	4dd#	4gg#
.	.	.	8f#	.	.
vi	4AA	8c#	4.e	4.cc#	4gg#
.	.	8B	.	.	.
ii7b	8DD	8A	.	.	4ff#
V	8GG	8B	8d#	8b	.
=4	=4	=4	=4	=4	=4
Ib	8CC	8G#	4e	8b	8ee
ii7b	8DD	8A	.	8cc#	8ff#
V	4GG	4B	4d#	8b	4ff#T
.	.	.	.	8a	.
I;	4CC;	4E;	4B;	4g#;	4ee;
=:|!	=:|!	=:|!	=:|!	=:|!	=:|!
*>B	*>B	*>B	*>B	*>B	*>B
I	4CC	4E	4B	4g#	4ee
=5	=5	=5	=5	=5	=5
IV	4FF	4A	4c#	4a	8ee
.	.	.	.	.	8ff#
Ib	4CC	8G#	8B	4ee	4gg#
.	.	8A	8c#	.	.
V	4GG	4B	4d#	8b	4ff#
.	.	.	.	8a	.
Vb/vi	4EE	4B#	4d#	4g#	4gg#
=6	=6	=6	=6	=6	=6
vi	4AA	4c#	8d#	2g#	4ee
.	.	.	4c#	.	.
V/vi	4EE	4G#	.	.	4dd#
.	.	.	8B#	.	.
vi;	4AA;	4C#;	4e;	4g#;	4cc#;
vi	4AA	8c#	8e	4g#	4cc#
.	.	8B	8d#	.	.
!!linebreak: 3
=7	=7	=7	=7	=7	=7
Vb/V	4DD	4A#	4c#	4f#	8ff#
.	.	.	.	.	8ee
V	4GG	8B	4B	4f#	4dd#
.	.	8A#	.	.	.
Ib	8CC	8G#	4B	8b	8ee
I7	8CC	8E	.	8g#	8dd#
V/V	4DD	4F#	8f#	4a#	4cc#
.	.	.	8e	.	.
=8	=8	=8	=8	=8	=8
V;	4GG;	4BB;	4d#;	4f#;	4b;
V	4GG	8B	8d#	4f#	4b
.	.	8A	8c#	.	.
Ib	4CC	4G#	4B	8b	4ee
.	.	.	.	8a	.
vi	4AA	8c#	4e	4g#	4ee
.	.	8B	.	.	.
=9	=9	=9	=9	=9	=9
ii7b	4DD	8A	4e	8cc#	4ff#
.	.	8F#	.	8a	.
V	4GG	4B	4d#	4b	4ff#
I	4CC	4.E	4e	8b	8gg#
.	.	.	.	8a	8ff#
V7/IV	4CC	.	4d	4b	4gg#
.	.	16F#	.	.	.
.	.	16G#	.	.	.
=10	=10	=10	=10	=10	=10
IV;	4FF;	4A;	4c#;	4a;	4ee;
I	4CC	4G#	4e	4b	4ee
ii	4DD	4F#	8f#	8a	4aa
.	.	.	8g#	8b	.
ii	4DD	4f#	4a	4cc#	4aa
=11	=11	=11	=11	=11	=11
iv/ii	4GG	8B	4b	4dd	8gg#
.	.	8d	.	.	8ff#
V/ii	4AA	4c#	4e#	4g#	4gg#
ii;	4DD;	4F#;	4c#;	4a;	4ff#;
V	4GG	4B	4d#	4b	4ff#
=12	=12	=12	=12	=12	=12
I	4CC	8e	4e	4b	4gg#
.	.	8d#	.	.	.
vi	4AA	8c#	4e	4cc#	4gg#
.	.	8B	.	.	.
iib	4DD	8A	4f#	4cc#	4aa
.	.	8G#	.	.	.
IVb/IV	4BB-	4F#	4f#	4dd	4aa
!!linebreak: 3
=13	=13	=13	=13	=13	=13
V7/IV	4CC	4E	8g#	4dd	8bb
.	.	.	8f#	.	16aa
.	.	.	.	.	16gg#
vi7/IV	8DD	8F#	8e	8cc#	8aa
viio/IV	8EE	8G#	8d	8b	8bb
IV;	4FF;	4A;	4c#;	4a;	4ee;
I	4CC	4e	8e	4b	4gg#
.	.	.	8d#	.	.
=14	=14	=14	=14	=14	=14
Vb/V	4DD	4A#	4c#	4cc#	8ff#
.	.	.	.	.	8ee
V	4GG	4B	4f#	4b	4dd#
Ib	8CC	8G#	4B	8b	8ee
I7	8CC	8E	.	8g#	8dd#
V/V	4DD	4F#	8f#	4a#	4cc#
.	.	.	8e	.	.
=15	=15	=15	=15	=15	=15
V;	4GG;	4BB;	4d#;	4f#;	4b;
V	4GG	4BB	4d#	4f#	4b
vi	4AA	4C#	8G#	4cc#	4ee
.	.	.	8A#	.	.
Vb	4GG	8D#	4B	8f#	4dd#
.	.	8E	.	8g#	.
=16	=16	=16	=16	=16	=16
ii	4DD	4F#	4f#	4a	4cc#
Ib	4CC	4G#	8f#	4b	4b
.	.	.	8e	.	.
viio7c	4BB	4A	8e	4.cc#	4ff#
.	.	.	8d#	.	.
viio7/V	4FF#	4A#	4e	.	4gg#
.	.	.	.	16dd#	.
.	.	.	.	16ee	.
=17	=17	=17	=17	=17	=17
V;	4GG;	4B;	4d#;	4b;	4ff#;
Vb/vi	4EE	4B#	8g#	4dd#	4gg#
.	.	.	8f#	.	.
vi	4AA	8c#	8e	4cc#	4aa
.	.	8d#	8f#	.	.
I	8CC	4e	8g#	8b	4gg#
IV7c	8FF	.	8a	8cc#	.
=18	=18	=18	=18	=18	=18
V7d	8GG	8A	8b	4dd#	4ff#
V7	8GG	8B	8a	.	.
vi	4AA	4c#	8g#	2ee	8ee
.	.	.	8a	.	8ff#
Ic	4CC	8B	4.b	.	4gg#
.	.	8A	.	.	.
V	4GG	4B	.	4dd#	4ff#
.	.	.	8a	.	.
=19	=19	=19	=19	=19	=19
I;	2.CC;	2.E;	2.g#;	2.b;	2.ee;
==	==	==	==	==	==
*-	*-	*-	*-	*-	*-
!!chor2scor: -l 3 -s 0.6 -o %b.pmx
!!!YEC: Copyright 1994, David Huron
!!!YEC: Changes/Additions 2001 by Craig Stuart Sapp
!!!YEN: United States of America
!!!SMA: 371 Bach Chorales, edited by Ludwig Erk, C.F. Peters
!!!PDT: 1850, 1865
!!!ONB: Harmony and Root analysis done manually
